svgs/asphalt_legends.svg

<svg width="192" height="192" viewBox="0 0 192 192" fill="none" xmlns="http://www.w3.org/2000/svg">
<path d="M40 68V28C40 24.6863 42.6863 22 46 22H98.0325M152 100.204V136.408C152 138.619 150.783 140.652 148.833 141.696L96 170L66.2719 154.074C63.0853 152.367 62.1208 148.251 64.2174 145.306L144.741 32.1959C147 29.0232 152 30.6212 152 34.5157L152 61.0824C152 62.3297 151.611 63.546 150.888 64.5622L81.5208 162M98.0325 22L41.0827 103.451C40.378 104.459 40 105.66 40 106.89V132.298C40 136.21 45.0366 137.797 47.2782 134.591L123.8 25.146C124.727 23.8204 123.779 22 122.161 22H98.0325Z" stroke="black" stroke-width="12" stroke-linecap="round" stroke-linejoin="round"/>
</svg>

<svg xmlns="http://www.w3.org/2000/svg" width="192" height="192" fill="none" viewBox="0 0 192 192"><path stroke="#000" stroke-linecap="round" stroke-linejoin="round" stroke-width="12" d="M40 68V28a6 6 0 0 1 6-6h52.033M152 100.204v36.204a6 6 0 0 1-3.167 5.288L96 170l-29.728-15.926a6 6 0 0 1-2.055-8.768l80.524-113.11C147 29.023 152 30.62 152 34.516v26.566a6 6 0 0 1-1.112 3.48L81.521 162M98.032 22l-56.95 81.451A6 6 0 0 0 40 106.89v25.408c0 3.912 5.037 5.499 7.278 2.293L123.8 25.146c.927-1.326-.021-3.146-1.639-3.146z"/></svg>
